images/icons/cross.svg

<?xml version="1.0" ?><svg style="enable-background:new 0 0 24 24;" version="1.1" viewBox="0 0 24 24" xml:space="preserve" xmlns="http://www.w3.org/2000/svg" xmlns:xlink="http://www.w3.org/1999/xlink"><style type="text/css">
	.st0{opacity:0.2;fill:none;stroke:#000000;stroke-width:5.000000e-02;stroke-miterlimit:10;}
</style><g id="grid_system"/><g id="_icons"><path d="M5.3,18.7C5.5,18.9,5.7,19,6,19s0.5-0.1,0.7-0.3l5.3-5.3l5.3,5.3c0.2,0.2,0.5,0.3,0.7,0.3s0.5-0.1,0.7-0.3   c0.4-0.4,0.4-1,0-1.4L13.4,12l5.3-5.3c0.4-0.4,0.4-1,0-1.4s-1-0.4-1.4,0L12,10.6L6.7,5.3c-0.4-0.4-1-0.4-1.4,0s-0.4,1,0,1.4   l5.3,5.3l-5.3,5.3C4.9,17.7,4.9,18.3,5.3,18.7z"/></g></svg>

<svg width="24" height="24" viewBox="0 0 24 24" fill="none" xmlns="http://www.w3.org/2000/svg">
<path d="M5.3 18.7C5.5 18.9 5.7 19 6 19C6.3 19 6.5 18.9 6.7 18.7L12 13.4L17.3 18.7C17.5 18.9 17.8 19 18 19C18.2 19 18.5 18.9 18.7 18.7C19.1 18.3 19.1 17.7 18.7 17.3L13.4 12L18.7 6.7C19.1 6.3 19.1 5.7 18.7 5.3C18.3 4.9 17.7 4.9 17.3 5.3L12 10.6L6.7 5.3C6.3 4.9 5.7 4.9 5.3 5.3C4.9 5.7 4.9 6.3 5.3 6.7L10.6 12L5.3 17.3C4.9 17.7 4.9 18.3 5.3 18.7Z" fill="#717171"/>
</svg>
